X:475
T: JUNGFRAEULEIN SOLL ICH MIT EUCH GAHN
N: E0427
O: Europa, Mitteleuropa, Deutschland
R: Liebes - Lied
M: 6/4
L: 1/8
K: F
C2 | F4F2A4A2 | c4c2A4
c2 | c4c2B4A2 | G6F4
C2 | F4F2A4A2 | c4c2A4
c2 | c4c2B4A2 | G6F4
c2 | d4c2c4B2 | A6G4
A2 | B4B2c3BA2 | G6G4
c2 | d4c2c4A2 | F4c2A4
c2 | c4c2A4A2 | G6F4

@@@ Tune index: 4125
